app/components/Map/marker.svg

<svg width="29" height="41" viewBox="0 0 29 41" version="1.1" xmlns="http://www.w3.org/2000/svg" xmlns:xlink="http://www.w3.org/1999/xlink">
<g id="Canvas" transform="translate(3 3)">
<g id="marker">
<g id="Vector">
<use xlink:href="#path0_fill" transform="translate(0 5.68434e-14)" fill="#FF552F"/>
<mask id="mask0_outline_out">
<rect id="mask0_outline_inv" fill="white" x="-3" y="-3" width="29" height="41" transform="translate(0 5.68434e-14)"/>
<use xlink:href="#path0_fill" fill="black" transform="translate(0 5.68434e-14)"/>
</mask>
<g mask="url(#mask0_outline_out)">
<use xlink:href="#path1_stroke_2x" transform="translate(0 5.68434e-14)" fill="#FFFFFF"/>
</g>
</g>
</g>
</g>
<defs>
<path id="path0_fill" d="M 11.5 0C 5.15 0 0 5.173 0 11.55C 0 20.212 11.5 33 11.5 33C 11.5 33 23 20.212 23 11.55C 23 5.173 17.85 0 11.5 0ZM 11.5 15.675C 9.233 15.675 7.393 13.827 7.393 11.55C 7.393 9.273 9.233 7.425 11.5 7.425C 13.767 7.425 15.607 9.273 15.607 11.55C 15.607 13.827 13.767 15.675 11.5 15.675Z"/>
<path id="path1_stroke_2x" d="M 11.5 33L 9.26932 35.006L 11.5 37.4865L 13.7307 35.006L 11.5 33ZM 11.5 -3C 3.48079 -3 -3 3.52853 -3 11.55L 3 11.55C 3 6.81747 6.81921 3 11.5 3L 11.5 -3ZM -3 11.55C -3 16.8882 0.398999 22.9376 3.25973 27.1961C 4.75208 29.4149 6.26909 31.3896 7.36972 32.7521C 7.92807 33.4428 8.40556 34.0099 8.72881 34.3868C 8.89423 34.5796 9.02992 34.7352 9.11807 34.8354C 9.16397 34.8876 9.20192 34.9304 9.22553 34.957C 9.23824 34.9713 9.24922 34.9836 9.25565 34.9908C 9.25931 34.9948 9.26273 34.9987 9.26457 35.0007C 9.26571 35.002 9.2669 35.0033 9.26747 35.004C 9.26787 35.0044 9.26833 35.0049 9.26853 35.0051C 9.26895 35.0056 9.26932 35.006 11.5 33C 13.7307 30.994 13.731 30.9943 13.7312 30.9946C 13.7312 30.9946 13.7314 30.9948 13.7315 30.9949C 13.7316 30.995 13.7315 30.9949 13.7312 30.9946C 13.7303 30.9936 13.7296 30.9927 13.7277 30.9906C 13.7231 30.9855 13.7175 30.9793 13.7085 30.9691C 13.6886 30.9467 13.662 30.9167 13.6236 30.8731C 13.5433 30.7818 13.4319 30.6542 13.2829 30.4804C 12.9773 30.1241 12.5563 29.6245 12.0365 28.981C 10.9809 27.675 9.62292 25.9114 8.24027 23.8504C 5.351 19.5494 3 14.8738 3 11.55L -3 11.55ZM 11.5 33C 13.7307 35.006 13.7311 35.0056 13.7315 35.0051C 13.7317 35.0049 13.7321 35.0044 13.7325 35.004C 13.7331 35.0033 13.7343 35.002 13.7354 35.0007C 13.7373 34.9987 13.7407 34.9948 13.7444 34.9908C 13.7508 34.9836 13.7618 34.9713 13.7745 34.957C 13.7981 34.9304 13.836 34.8876 13.8819 34.8354C 13.9701 34.7352 14.1058 34.5796 14.2712 34.3868C 14.5944 34.0099 15.0719 33.4428 15.6303 32.7521C 16.7309 31.3896 18.2479 29.4149 19.7403 27.1961C 22.601 22.9376 26 16.8882 26 11.55L 20 11.55C 20 14.8738 17.649 19.5494 14.7597 23.8504C 13.3771 25.9114 12.0191 27.675 10.9635 28.981C 10.4437 29.6245 10.0227 30.1241 9.71709 30.4804C 9.56806 30.6542 9.45667 30.7818 9.37637 30.8731C 9.33805 30.9167 9.31141 30.9467 9.29151 30.9691C 9.28246 30.9793 9.27694 30.9855 9.27232 30.9906C 9.27045 30.9927 9.26971 30.9936 9.26876 30.9946C 9.26851 30.9949 9.26839 30.995 9.26852 30.9949C 9.26857 30.9948 9.26877 30.9946 9.26879 30.9946C 9.26903 30.9943 9.26932 30.994 11.5 33ZM 26 11.55C 26 3.52853 19.5192 -3 11.5 -3L 11.5 3C 16.1808 3 20 6.81747 20 11.55L 26 11.55ZM 11.5 12.675C 10.9022 12.675 10.393 12.1825 10.393 11.55L 4.393 11.55C 4.393 15.4715 7.56382 18.675 11.5 18.675L 11.5 12.675ZM 10.393 11.55C 10.393 10.9175 10.9022 10.425 11.5 10.425L 11.5 4.425C 7.56382 4.425 4.393 7.6285 4.393 11.55L 10.393 11.55ZM 11.5 10.425C 12.0978 10.425 12.607 10.9175 12.607 11.55L 18.607 11.55C 18.607 7.6285 15.4362 4.425 11.5 4.425L 11.5 10.425ZM 12.607 11.55C 12.607 12.1825 12.0978 12.675 11.5 12.675L 11.5 18.675C 15.4362 18.675 18.607 15.4715 18.607 11.55L 12.607 11.55Z"/>
</defs>
</svg>

<svg xmlns="http://www.w3.org/2000/svg" width="29" height="41" viewBox="0 0 29 41" xmlns:xlink="http://www.w3.org/1999/xlink">
  <g transform="translate(18039 -11401)">
    <use fill="#FF552F" xlink:href="#a" transform="translate(-18036 11404)"/>
    <mask id="b">
      <path fill="#fff" d="M-18039 11401h29v41h-29z"/>
      <use xlink:href="#a" transform="translate(-18036 11404)"/>
    </mask>
    <use fill="#FFF" xlink:href="#c" transform="translate(-18036 11404)" mask="url(#b)"/>
  </g>
  <defs>
    <path id="a" d="M11.5 0C5.15 0 0 5.173 0 11.55 0 20.212 11.5 33 11.5 33S23 20.212 23 11.55C23 5.173 17.85 0 11.5 0zm0 15.675c-2.267 0-4.107-1.848-4.107-4.125s1.84-4.125 4.107-4.125c2.267 0 4.107 1.848 4.107 4.125s-1.84 4.125-4.107 4.125z"/>
    <path id="c" d="M11.5 33l-2.23 2.006 2.23 2.48 2.23-2.48L11.5 33zm0-36C3.48-3-3 3.528-3 11.55h6C3 6.817 6.82 3 11.5 3v-6zM-3 11.55c0 5.338 3.4 11.388 6.26 15.646 1.492 2.22 3.01 4.194 4.11 5.556.558.69 1.036 1.258 1.36 1.635.164.193.3.348.388.45l.108.12.03.034c.003.005.007.01.01.01 0 .002 0 .003.002.004 0 .002 0 .002 2.232-2.004l2.23-2.006c.002 0 .002 0 0 0l-.002-.003-.02-.02-.084-.097c-.08-.09-.192-.22-.34-.393-.307-.356-.728-.855-1.248-1.5-1.055-1.305-2.413-3.07-3.796-5.13C5.35 19.55 3 14.874 3 11.55h-6zM11.5 33l2.23 2.005h.002c0-.002.002-.003.003-.004.002 0 .006-.005.01-.01l.03-.033c.023-.026.06-.07.107-.12l.39-.45c.322-.377.8-.944 1.358-1.635 1.1-1.362 2.618-3.337 4.11-5.556C22.6 22.938 26 16.888 26 11.55h-6c0 3.324-2.35 8-5.24 12.3-1.383 2.06-2.74 3.825-3.796 5.13-.52.645-.94 1.144-1.247 1.5l-.34.393-.085.096-.02.02-.003.005s-.002 0 0 0L11.5 33zM26 11.55C26 3.528 19.52-3 11.5-3v6c4.68 0 8.5 3.817 8.5 8.55h6zm-14.5 1.125c-.598 0-1.107-.493-1.107-1.125h-6c0 3.922 3.17 7.125 7.107 7.125v-6zm-1.107-1.125c0-.632.51-1.125 1.107-1.125v-6c-3.936 0-7.107 3.203-7.107 7.125h6zm1.107-1.125c.598 0 1.107.493 1.107 1.125h6c0-3.922-3.17-7.125-7.107-7.125v6zm1.107 1.125c0 .632-.51 1.125-1.107 1.125v6c3.936 0 7.107-3.203 7.107-7.125h-6z"/>
  </defs>
</svg>
